public/images/partner1.svg

<svg width="153" height="48" viewBox="0 0 153 48" fill="none" xmlns="http://www.w3.org/2000/svg">
<path d="M14.901 22.2496C15.7587 19.0488 19.0488 15.7587 22.2496 14.901L42.2045 9.55325C45.4053 8.69549 47.3047 10.5949 46.4469 13.7956L41.0992 33.7506C40.2414 36.9513 36.9513 40.2414 33.7506 41.0992L13.7956 46.4469C10.5948 47.3047 8.69548 45.4053 9.55325 42.2045L14.901 22.2496Z" fill="#9E77ED"/>
<path d="M6.90097 14.2496C7.75874 11.0488 11.0488 7.75874 14.2496 6.90097L34.2046 1.55325C37.4053 0.695481 39.3047 2.59485 38.4469 5.7956L33.0992 25.7506C32.2414 28.9513 28.9513 32.2414 25.7506 33.0992L5.79561 38.4469C2.59485 39.3047 0.695484 37.4053 1.55325 34.2045L6.90097 14.2496Z" fill="#6941C6"/>
<path d="M64.989 31.7478H71.8531V34.435H61.6592V14.1348H64.989V31.7478Z" fill="white"/>
<path d="M73.5279 26.3149C73.5279 24.6987 73.8589 23.2675 74.521 22.0212C75.2025 20.775 76.1177 19.8111 77.2666 19.1295C78.435 18.4285 79.7202 18.078 81.1222 18.078C82.3879 18.078 83.4881 18.3311 84.4228 18.8374C85.377 19.3242 86.1364 19.9376 86.7011 20.6776V18.3409H90.0602V34.435H86.7011V32.0399C86.1364 32.7993 85.3672 33.4322 84.3936 33.9385C83.42 34.4448 82.31 34.6979 81.0638 34.6979C79.6812 34.6979 78.4155 34.3474 77.2666 33.6464C76.1177 32.9259 75.2025 31.9328 74.521 30.6671C73.8589 29.3819 73.5279 27.9312 73.5279 26.3149ZM86.7011 26.3733C86.7011 25.2634 86.4674 24.2995 86.0001 23.4817C85.5522 22.6638 84.9583 22.0407 84.2184 21.6123C83.4784 21.1839 82.68 20.9697 81.8232 20.9697C80.9664 20.9697 80.168 21.1839 79.4281 21.6123C78.6881 22.0212 78.0845 22.6346 77.6171 23.4524C77.1692 24.2508 76.9453 25.205 76.9453 26.3149C76.9453 27.4249 77.1692 28.3985 77.6171 29.2358C78.0845 30.0732 78.6881 30.7158 79.4281 31.1636C80.1875 31.592 80.9859 31.8062 81.8232 31.8062C82.68 31.8062 83.4784 31.592 84.2184 31.1636C84.9583 30.7352 85.5522 30.1121 86.0001 29.2942C86.4674 28.4569 86.7011 27.4833 86.7011 26.3733Z" fill="white"/>
<path d="M108.921 18.3409L99.0488 42.0002H95.6021L98.8735 34.1722L92.5352 18.3409H96.2447L100.772 30.6087L105.475 18.3409H108.921Z" fill="white"/>
<path d="M126.185 25.9936C126.185 26.5973 126.146 27.1425 126.068 27.6293H113.771C113.868 28.9145 114.345 29.9466 115.202 30.7255C116.059 31.5044 117.111 31.8939 118.357 31.8939C120.148 31.8939 121.414 31.1442 122.154 29.6448H125.747C125.26 31.1247 124.374 32.3417 123.089 33.2959C121.823 34.2306 120.246 34.6979 118.357 34.6979C116.819 34.6979 115.436 34.3571 114.209 33.6756C113.002 32.9746 112.048 32.0009 111.347 30.7547C110.665 29.489 110.324 28.0285 110.324 26.3733C110.324 24.7182 110.655 23.2675 111.317 22.0212C111.999 20.7555 112.943 19.7818 114.151 19.1003C115.378 18.4188 116.78 18.078 118.357 18.078C119.876 18.078 121.229 18.409 122.417 19.0711C123.605 19.7332 124.53 20.6679 125.192 21.8752C125.854 23.063 126.185 24.4358 126.185 25.9936ZM122.709 24.9421C122.69 23.7153 122.251 22.732 121.395 21.992C120.538 21.252 119.477 20.8821 118.211 20.8821C117.062 20.8821 116.079 21.252 115.261 21.992C114.443 22.7125 113.956 23.6959 113.8 24.9421H122.709Z" fill="white"/>
<path d="M132.792 20.6776C133.278 19.8597 133.921 19.2269 134.719 18.779C135.537 18.3117 136.501 18.078 137.611 18.078V21.5246H136.764C135.459 21.5246 134.466 21.8557 133.785 22.5178C133.123 23.1798 132.792 24.3287 132.792 25.9644V34.435H129.462V18.3409H132.792V20.6776Z" fill="white"/>
<path d="M146.514 34.6979C145.248 34.6979 144.109 34.474 143.096 34.0261C142.103 33.5588 141.314 32.9356 140.73 32.1567C140.146 31.3584 139.835 30.4723 139.796 29.4987H143.242C143.301 30.1803 143.622 30.7547 144.206 31.222C144.81 31.6699 145.559 31.8939 146.455 31.8939C147.39 31.8939 148.11 31.7186 148.617 31.3681C149.142 30.9981 149.405 30.5308 149.405 29.9661C149.405 29.3624 149.113 28.9145 148.529 28.6224C147.964 28.3303 147.059 28.0091 145.813 27.6585C144.605 27.3275 143.622 27.0062 142.863 26.6946C142.103 26.3831 141.441 25.906 140.876 25.2634C140.331 24.6208 140.058 23.7737 140.058 22.7222C140.058 21.8654 140.312 21.0865 140.818 20.3855C141.324 19.665 142.045 19.1003 142.979 18.6914C143.934 18.2824 145.024 18.078 146.251 18.078C148.081 18.078 149.551 18.5453 150.661 19.48C151.791 20.3952 152.394 21.6512 152.472 23.248H149.142C149.084 22.5275 148.792 21.953 148.266 21.5246C147.74 21.0962 147.03 20.8821 146.134 20.8821C145.258 20.8821 144.586 21.0476 144.119 21.3786C143.651 21.7096 143.418 22.1478 143.418 22.693C143.418 23.1214 143.573 23.4817 143.885 23.7737C144.196 24.0658 144.576 24.2995 145.024 24.4748C145.472 24.6305 146.134 24.835 147.01 25.0881C148.179 25.3997 149.133 25.721 149.873 26.052C150.632 26.3636 151.284 26.831 151.83 27.4541C152.375 28.0772 152.657 28.9048 152.677 29.9368C152.677 30.8521 152.424 31.6699 151.917 32.3904C151.411 33.1109 150.691 33.6756 149.756 34.0845C148.841 34.4935 147.76 34.6979 146.514 34.6979Z" fill="white"/>
</svg>

<svg width="153" height="48" fill="none" xmlns="http://www.w3.org/2000/svg"><path d="M14.901 22.25c.858-3.201 4.148-6.491 7.349-7.349l19.955-5.348c3.2-.858 5.1 1.042 4.242 4.243L41.099 33.75c-.858 3.2-4.148 6.49-7.348 7.348l-19.955 5.348c-3.201.858-5.1-1.042-4.243-4.242l5.348-19.955z" fill="#9E77ED"/><path d="M6.901 14.25c.858-3.201 4.148-6.491 7.349-7.349l19.955-5.348c3.2-.858 5.1 1.042 4.242 4.243L33.099 25.75c-.858 3.2-4.148 6.49-7.348 7.348L5.796 38.447c-3.201.858-5.1-1.042-4.243-4.242L6.901 14.25z" fill="#6941C6"/><path d="M64.989 31.748h6.864v2.687H61.66v-20.3h3.33v17.613zM73.528 26.315c0-1.616.33-3.048.993-4.294.681-1.246 1.597-2.21 2.746-2.892 1.168-.7 2.453-1.051 3.855-1.051 1.266 0 2.366.253 3.3.76.955.486 1.714 1.1 2.28 1.84V18.34h3.358v16.094h-3.359V32.04c-.565.76-1.334 1.392-2.307 1.898-.974.507-2.084.76-3.33.76a7.15 7.15 0 0 1-3.797-1.052c-1.15-.72-2.064-1.713-2.746-2.979-.662-1.285-.993-2.736-.993-4.352zm13.173.058c0-1.11-.234-2.074-.7-2.891-.449-.818-1.043-1.441-1.783-1.87a4.7 4.7 0 0 0-2.395-.642 4.7 4.7 0 0 0-2.395.642c-.74.41-1.343 1.023-1.81 1.84-.449.799-.673 1.753-.673 2.863s.224 2.083.672 2.92c.468.838 1.071 1.48 1.811 1.929.76.428 1.558.642 2.395.642a4.7 4.7 0 0 0 2.395-.642c.74-.429 1.334-1.052 1.782-1.87.467-.837.701-1.81.701-2.92zM108.921 18.34 99.049 42h-3.447l3.272-7.828-6.339-15.831h3.71l4.527 12.268 4.703-12.268h3.446zM126.185 25.994c0 .603-.039 1.148-.117 1.635h-12.297c.097 1.285.574 2.318 1.431 3.096.857.78 1.909 1.169 3.155 1.169 1.791 0 3.057-.75 3.797-2.25h3.593c-.487 1.48-1.373 2.698-2.658 3.652-1.266.935-2.843 1.402-4.732 1.402-1.538 0-2.921-.34-4.148-1.022a7.641 7.641 0 0 1-2.862-2.921c-.682-1.266-1.023-2.726-1.023-4.382 0-1.655.331-3.106.993-4.352.682-1.265 1.626-2.24 2.834-2.92 1.227-.682 2.629-1.023 4.206-1.023 1.519 0 2.872.331 4.06.993a6.992 6.992 0 0 1 2.775 2.804c.662 1.188.993 2.56.993 4.119zm-3.476-1.052c-.019-1.227-.458-2.21-1.314-2.95-.857-.74-1.918-1.11-3.184-1.11-1.149 0-2.132.37-2.95 1.11-.818.72-1.305 1.704-1.461 2.95h8.909zM132.792 20.678a5.145 5.145 0 0 1 1.927-1.899c.818-.467 1.782-.701 2.892-.701v3.447h-.847c-1.305 0-2.298.33-2.979.993-.662.662-.993 1.81-.993 3.446v8.471h-3.33V18.341h3.33v2.337zM146.514 34.698c-1.266 0-2.405-.224-3.418-.672-.993-.467-1.782-1.09-2.366-1.87a4.73 4.73 0 0 1-.934-2.657h3.446c.059.681.38 1.256.964 1.723.604.448 1.353.672 2.249.672.935 0 1.655-.175 2.162-.526.525-.37.788-.837.788-1.402 0-.604-.292-1.052-.876-1.344-.565-.292-1.47-.613-2.716-.963-1.208-.331-2.191-.653-2.95-.964a5.295 5.295 0 0 1-1.987-1.432c-.545-.642-.818-1.49-.818-2.54 0-.858.254-1.636.76-2.337.506-.721 1.227-1.286 2.161-1.695.955-.409 2.045-.613 3.272-.613 1.83 0 3.3.467 4.41 1.402 1.13.915 1.733 2.171 1.811 3.768h-3.33c-.058-.72-.35-1.295-.876-1.723-.526-.429-1.236-.643-2.132-.643-.876 0-1.548.166-2.015.497-.468.33-.701.769-.701 1.314 0 .428.155.789.467 1.08a3.51 3.51 0 0 0 1.139.702c.448.155 1.11.36 1.986.613 1.169.312 2.123.633 2.863.964a5.191 5.191 0 0 1 1.957 1.402c.545.623.827 1.45.847 2.483 0 .915-.253 1.733-.76 2.453-.506.72-1.226 1.286-2.161 1.694-.915.41-1.996.614-3.242.614z" fill="#fff"/></svg>
